X: 1241
T: An Dro Moyland
R: reel
M: 4/4
K: Eminor
|:"Em"EG/A/ "G"B>A "Bm"Bd "Em"e2|ed/c/ "Bm"B>A "D"FA "Em"GF|
"Em"EG/A/ "G"B>A "Bm"Bd "Em"e2|ed/c/ "Bm"B>G "D"FG "Em"E2:|
|:"Em" B/c/B/A/ "D"FF/A/ "Bm"FF/A/ "Em"BG|B/c/B/A/ "D"FF/A/ "Bm"Bd "Em"BA|
"Em" B/c/B/A/ "D"FF/A/ "Bm"FF/A/ "Em"BG|B/c/B/A/ "D"FF/A/ B/A/G/F/ "Em"E2:|

